assets/images/icons/key-info-03.svg

<svg width="32" height="32" viewBox="0 0 32 32" fill="none" xmlns="http://www.w3.org/2000/svg">
<g clip-path="url(#clip0_211_3640)">
<path opacity="0.1" d="M0.223155 23.1618C-0.0589054 20.752 -0.098086 18.3874 0.248062 16.248C0.673696 13.6174 1.78493 10.6909 2.99894 8.07362C5.37163 2.95839 9.61911 1.16885 14.7912 0.362065C22.0007 -0.762522 31.9372 0.362091 32 9.08714C31.6383 12.2073 29.2517 20.8815 21.1951 21.5434C18.5313 21.7622 17.5348 24.4378 16.3612 27.5006C13.2729 35.5602 1.25575 31.9835 0.223155 23.1618Z" fill="#7FB51F"/>
<g clip-path="url(#clip1_211_3640)">
<path d="M8.07227 11.2793L12.0717 15.2787C12.9796 14.5525 14.0822 14.0805 15.2965 13.9439V8.28345C12.5309 8.44549 10.0198 9.54678 8.07227 11.2793Z" fill="#7FB51F"/>
<path d="M7.07833 12.2734C5.19925 14.3857 4 17.1579 4 20.2008C4 20.5895 4.31448 20.904 4.70312 20.904H8.96875C9.35739 20.904 9.67188 20.5895 9.67188 20.2008C9.67188 18.7096 10.2117 17.3556 11.0778 16.2729L7.07833 12.2734Z" fill="#7FB51F"/>
<path d="M21.4327 14.7029C21.1958 14.4962 20.8525 14.4695 20.5909 14.6391L14.4887 18.5316C13.6736 19.0521 13.1875 19.9385 13.1875 20.9039C13.1875 22.4551 14.4489 23.7164 16 23.7164C17.0904 23.7164 18.0915 23.0779 18.5502 22.0898L21.6064 15.5282C21.7383 15.2453 21.6676 14.9089 21.4327 14.7029Z" fill="#7FB51F"/>
<path d="M24.9224 12.2734L22.8558 14.3401C23.116 14.8956 23.1502 15.5459 22.8816 16.1222L21.957 18.1071C22.1951 18.7609 22.3288 19.4637 22.3288 20.2008C22.3288 20.5895 22.6433 20.904 23.032 20.904H27.2976C27.6862 20.904 28.0007 20.5895 28.0007 20.2008C28.0007 17.1579 26.8015 14.3857 24.9224 12.2734Z" fill="#7FB51F"/>
<path d="M16.7031 8.28345V13.9439C17.2951 14.0105 17.8592 14.1595 18.3884 14.376L19.8349 13.4532C20.4145 13.0777 21.1226 12.9971 21.8602 13.3465L23.9274 11.2793C21.9798 9.54678 19.4688 8.44549 16.7031 8.28345Z" fill="#7FB51F"/>
</g>
</g>
<defs>
<clipPath id="clip0_211_3640">
<rect width="32" height="32" fill="white"/>
</clipPath>
<clipPath id="clip1_211_3640">
<rect width="24" height="24" fill="white" transform="translate(4 4)"/>
</clipPath>
</defs>
</svg>

<svg xmlns="http://www.w3.org/2000/svg" width="32" height="32" fill="none"><g fill="#7FB51F" clip-path="url(#a)"><path d="M.223 23.162c-.282-2.41-.321-4.775.025-6.914.426-2.63 1.537-5.557 2.75-8.174C5.373 2.958 9.62 1.169 14.792.362 22.001-.763 31.937.362 32 9.087c-.362 3.12-2.748 11.795-10.805 12.456-2.664.22-3.66 2.895-4.834 5.958-3.088 8.06-15.105 4.482-16.138-4.34" opacity=".1"/><g clip-path="url(#b)"><path d="m8.072 11.28 4 3.999a6.26 6.26 0 0 1 3.225-1.335v-5.66a11.9 11.9 0 0 0-7.225 2.995m-.994.994C5.2 14.386 4 17.158 4 20.201c0 .389.314.703.703.703H8.97a.703.703 0 0 0 .703-.703c0-1.491.54-2.845 1.406-3.928zm14.355 2.43a.7.7 0 0 0-.842-.064l-6.102 3.893a2.8 2.8 0 0 0-1.302 2.372A2.815 2.815 0 0 0 16 23.716a2.82 2.82 0 0 0 2.55-1.626l3.056-6.562a.7.7 0 0 0-.173-.825m3.489-2.43-2.066 2.067c.26.556.294 1.206.026 1.782l-.925 1.985c.238.654.372 1.357.372 2.094 0 .389.314.703.703.703h4.266a.703.703 0 0 0 .703-.703c0-3.043-1.2-5.815-3.079-7.928m-8.219-3.99v5.66a6.3 6.3 0 0 1 1.685.433l1.447-.923c.58-.375 1.288-.456 2.025-.106l2.067-2.068a11.9 11.9 0 0 0-7.224-2.996"/></g></g><defs><clipPath id="a"><path fill="#fff" d="M0 0h32v32H0z"/></clipPath><clipPath id="b"><path fill="#fff" d="M4 4h24v24H4z"/></clipPath></defs></svg>
